flaticon/technology/game-console-10.svg

<svg xmlns="http://www.w3.org/2000/svg" width="32" height="32" viewBox="0 0 24 24">
    <path d="M 16.800781 16.746094 C 16.800781 15.976562 16.171875 15.347656 15.398438 15.347656 C 14.628906 15.347656 14 15.976562 14 16.746094 C 14 17.519531 14.628906 18.148438 15.398438 18.148438 C 16.171875 18.148438 16.800781 17.519531 16.800781 16.746094 Z M 14.800781 16.746094 C 14.800781 16.414062 15.070312 16.148438 15.398438 16.148438 C 15.730469 16.148438 16 16.414062 16 16.746094 C 16 17.078125 15.730469 17.347656 15.398438 17.347656 C 15.070312 17.347656 14.800781 17.078125 14.800781 16.746094 Z M 13 17.746094 C 12.226562 17.746094 11.601562 18.375 11.601562 19.148438 C 11.601562 19.917969 12.226562 20.546875 13 20.546875 C 13.773438 20.546875 14.398438 19.917969 14.398438 19.148438 C 14.398438 18.375 13.773438 17.746094 13 17.746094 Z M 13 19.746094 C 12.667969 19.746094 12.398438 19.476562 12.398438 19.148438 C 12.398438 18.816406 12.667969 18.546875 13 18.546875 C 13.332031 18.546875 13.601562 18.816406 13.601562 19.148438 C 13.601562 19.476562 13.332031 19.746094 13 19.746094 Z M 18.753906 0 L 5.246094 0 C 4.558594 0 4 0.558594 4 1.246094 L 4 22.753906 C 4 23.441406 4.558594 24 5.246094 24 L 17.433594 24 C 18.847656 24 20 22.847656 20 21.433594 L 20 1.246094 C 20 0.558594 19.441406 0 18.753906 0 Z M 19.199219 21.433594 C 19.199219 22.40625 18.40625 23.199219 17.433594 23.199219 L 5.246094 23.199219 C 5 23.199219 4.800781 23 4.800781 22.753906 L 4.800781 1.246094 C 4.800781 1 5 0.800781 5.246094 0.800781 L 18.753906 0.800781 C 19 0.800781 19.199219 1 19.199219 1.246094 Z M 6.398438 14 L 15.199219 14 C 16.742188 14 18 12.761719 18 11.238281 L 18 2.398438 C 18 2.179688 17.820312 2 17.601562 2 L 6.398438 2 C 6.179688 2 6 2.179688 6 2.398438 L 6 13.601562 C 6 13.820312 6.179688 14 6.398438 14 Z M 6.800781 2.800781 L 17.199219 2.800781 L 17.199219 11.238281 C 17.199219 12.320312 16.304688 13.199219 15.199219 13.199219 L 6.800781 13.199219 Z M 15.515625 22.628906 L 14.515625 21.628906 L 15.082031 21.0625 L 16.082031 22.0625 Z M 16.71875 21.429688 L 15.71875 20.429688 L 16.28125 19.863281 L 17.28125 20.863281 Z M 17.917969 20.230469 L 16.917969 19.230469 L 17.484375 18.664062 L 18.484375 19.664062 Z M 8 6 C 8.101562 6 8.203125 5.960938 8.28125 5.882812 L 9.882812 4.28125 C 10.039062 4.125 10.039062 3.875 9.882812 3.71875 C 9.726562 3.5625 9.472656 3.5625 9.316406 3.71875 L 7.71875 5.316406 C 7.5625 5.472656 7.5625 5.726562 7.71875 5.882812 C 7.796875 5.960938 7.898438 6 8 6 Z M 8.515625 6.515625 L 7.71875 7.316406 C 7.5625 7.472656 7.5625 7.726562 7.71875 7.882812 C 7.796875 7.960938 7.898438 8 8 8 C 8.101562 8 8.203125 7.960938 8.28125 7.882812 L 9.082031 7.082031 C 9.238281 6.925781 9.238281 6.671875 9.082031 6.515625 C 8.925781 6.359375 8.671875 6.359375 8.515625 6.515625 Z M 9.316406 5.714844 C 9.242188 5.792969 9.199219 5.890625 9.199219 6 C 9.199219 6.105469 9.242188 6.207031 9.316406 6.285156 C 9.390625 6.355469 9.496094 6.398438 9.601562 6.398438 C 9.703125 6.398438 9.808594 6.355469 9.882812 6.285156 C 9.957031 6.207031 10 6.105469 10 6 C 10 5.894531 9.957031 5.792969 9.882812 5.714844 C 9.734375 5.566406 9.464844 5.566406 9.316406 5.714844 Z M 11.316406 3.71875 L 10.117188 4.917969 C 9.960938 5.074219 9.960938 5.328125 10.117188 5.484375 C 10.195312 5.5625 10.296875 5.601562 10.398438 5.601562 C 10.503906 5.601562 10.605469 5.5625 10.683594 5.484375 L 11.882812 4.28125 C 12.039062 4.125 12.039062 3.875 11.882812 3.71875 C 11.726562 3.5625 11.472656 3.5625 11.316406 3.71875 Z M 10.515625 16.398438 L 9.601562 16.398438 L 9.601562 15.484375 C 9.601562 15.109375 9.292969 14.800781 8.914062 14.800781 L 7.886719 14.800781 C 7.507812 14.800781 7.199219 15.109375 7.199219 15.484375 L 7.199219 16.398438 L 6.285156 16.398438 C 5.90625 16.398438 5.601562 16.707031 5.601562 17.085938 L 5.601562 18.113281 C 5.601562 18.492188 5.90625 18.800781 6.285156 18.800781 L 7.199219 18.800781 L 7.199219 19.714844 C 7.199219 20.09375 7.507812 20.398438 7.886719 20.398438 L 8.914062 20.398438 C 9.292969 20.398438 9.601562 20.09375 9.601562 19.714844 L 9.601562 18.800781 L 10.515625 18.800781 C 10.890625 18.800781 11.199219 18.492188 11.199219 18.113281 L 11.199219 17.085938 C 11.199219 16.707031 10.890625 16.398438 10.515625 16.398438 Z M 10.398438 18 L 8.800781 18 L 8.800781 19.601562 L 8 19.601562 L 8 18 L 6.398438 18 L 6.398438 17.199219 L 8 17.199219 L 8 15.601562 L 8.800781 15.601562 L 8.800781 17.199219 L 10.398438 17.199219 Z M 10.398438 18"/>
</svg>

<svg xmlns="http://www.w3.org/2000/svg" width="32" height="32" viewBox="0 0 24 24">
    <path d="M16.8 16.746c0-.77-.628-1.398-1.402-1.398-.77 0-1.398.629-1.398 1.398 0 .774.629 1.402 1.398 1.402.774 0 1.403-.628 1.403-1.402zm-2 0c0-.332.27-.598.598-.598a.598.598 0 1 1 0 1.2.601.601 0 0 1-.597-.602zm-1.8 1a1.4 1.4 0 0 0 0 2.8 1.4 1.4 0 0 0 0-2.8zm0 2a.601.601 0 0 1-.602-.598.602.602 0 0 1 1.204 0c0 .329-.27.598-.602.598zM18.754 0H5.246C4.56 0 4 .559 4 1.246v21.508C4 23.44 4.559 24 5.246 24h12.188A2.57 2.57 0 0 0 20 21.434V1.246C20 .56 19.441 0 18.754 0zm.445 21.434c0 .972-.793 1.765-1.765 1.765H5.246a.445.445 0 0 1-.445-.445V1.246C4.8 1 5 .801 5.246.801h13.508c.246 0 .445.199.445.445zM6.4 14h8.8C16.742 14 18 12.762 18 11.238v-8.84A.4.4 0 0 0 17.602 2H6.398A.4.4 0 0 0 6 2.398v11.204a.4.4 0 0 0 .398.398zM6.8 2.8h10.398v8.438c0 1.082-.894 1.961-2 1.961H6.801zm8.715 19.829l-1-1 .566-.567 1 1zm1.203-1.2l-1-1 .562-.566 1 1zm1.199-1.199l-1-1 .566-.566 1 1zM8 6c.102 0 .203-.04.281-.117L9.883 4.28a.396.396 0 0 0 0-.562.4.4 0 0 0-.567 0L7.72 5.316A.4.4 0 0 0 8 6zm.516.516l-.797.8A.4.4 0 0 0 8 8c.102 0 .203-.04.281-.117l.801-.801a.4.4 0 0 0-.566-.566zm.8-.801A.409.409 0 0 0 9.2 6c0 .105.043.207.117.285.075.07.18.113.286.113a.42.42 0 0 0 .28-.113A.416.416 0 0 0 10 6a.416.416 0 0 0-.117-.285.416.416 0 0 0-.567 0zm2-1.996l-1.199 1.199a.4.4 0 0 0 .567.566l1.199-1.203a.396.396 0 0 0 0-.562.4.4 0 0 0-.567 0zm-.8 12.68h-.914v-.915a.688.688 0 0 0-.688-.683H7.887a.688.688 0 0 0-.688.683v.914h-.914a.685.685 0 0 0-.683.688v1.027c0 .38.304.688.683.688H7.2v.914c0 .379.309.683.688.683h1.027a.685.685 0 0 0 .688-.683V18.8h.914a.688.688 0 0 0 .683-.688v-1.027a.688.688 0 0 0-.683-.688zM10.398 18H8.801v1.602H8V18H6.398v-.8H8v-1.598h.8v1.597h1.598zm0 0"/>
</svg>
